X: 35005
T: Roisin Dubh
R: hornpipe
M: 4/4
K: Dmajor
|:{F}A4 FA3|D6 FA|{d}e3 f/e/ d2 e f3|e d3 B A3|{F}A3 F D E3|{FEDE}FE D6|
{A}d>ef2 g<f d<e|(f/e/d/c/)/ d3 {edc}A3|F<A d<e def2|e/f/e/d/ d6|
A<d e/f3 g<f z {efedc}d2|{edc} A4 F<A d<e|{fede} f3 e d3 B zF/A3 z|
F/A3 F<A {B}A|D6FA|{d}e3 f/e/ d2 e f3|e d3 B A3|{F}A3 F D E3|{FEDE}FE D6:|

